apps/web/public/images/paypal.svg

<svg xmlns="http://www.w3.org/2000/svg" width="104" height="32" viewBox="0 0 104 32" fill="none">
    <path fill-rule="evenodd" clip-rule="evenodd" d="M22.8764 6.85693H16.9989C16.6531 6.85693 16.3074 7.20267 16.1345 7.54841L13.7144 22.7608C13.7144 23.1066 13.8872 23.2794 14.233 23.2794H16.9989C17.3446 23.2794 17.6903 22.9337 17.8632 22.588L18.5547 18.4391C18.5547 18.0934 18.9004 17.7476 19.419 17.7476H21.3206C25.2965 17.7476 27.5438 15.8461 28.0624 12.043C28.4082 10.4872 28.0624 9.10422 27.3709 8.23988C26.3337 7.37554 24.9508 6.85693 22.8764 6.85693ZM23.5679 12.5616C23.2221 14.636 21.6663 14.636 20.1105 14.636H19.2461L19.9376 10.66C19.9376 10.4872 20.1105 10.3143 20.4562 10.3143H20.802C21.8392 10.3143 22.8764 10.3143 23.395 11.0058C23.5678 11.1786 23.7407 11.6972 23.5679 12.5616Z" fill="#263B80"/>
    <path fill-rule="evenodd" clip-rule="evenodd" d="M40.6824 12.3889H37.9165C37.7437 12.3889 37.3979 12.5618 37.3979 12.7346L37.2251 13.599L37.0522 13.2533C36.3607 12.3889 35.1506 12.0432 33.7677 12.0432C30.6561 12.0432 27.8902 14.4633 27.3716 17.7478C27.0258 19.4765 27.5444 21.0323 28.4088 22.0695C29.2731 23.1067 30.4832 23.4525 32.039 23.4525C34.632 23.4525 36.015 21.8967 36.015 21.8967L35.8421 22.761C35.8421 23.1067 36.015 23.2796 36.3607 23.2796H38.9537C39.2995 23.2796 39.6452 22.9339 39.8181 22.5881L41.3739 12.9075C41.201 12.7346 40.8553 12.3889 40.6824 12.3889ZM36.7065 17.9207C36.3607 19.4765 35.1506 20.6866 33.422 20.6866C32.5576 20.6866 31.8661 20.3409 31.5204 19.9951C31.1747 19.4765 31.0018 18.785 31.0018 17.9207C31.1747 16.3649 32.5576 15.1548 34.1134 15.1548C34.9778 15.1548 35.4964 15.5005 36.015 15.8463C36.5336 16.3649 36.7065 17.2292 36.7065 17.9207Z" fill="#263B80"/>
    <path d="M52.7829 12.3888H55.7217C56.0674 12.3888 56.4131 12.9074 55.8945 13.426L46.3867 27.0826C46.2139 27.2555 46.041 27.4284 45.6953 27.4284H42.9294C42.5836 27.4284 42.4108 26.9098 42.5836 26.564L45.5224 22.4152L42.4108 13.2532C42.4108 12.9074 42.5836 12.5617 42.9294 12.5617H45.6953C46.2139 12.5617 46.3867 12.7346 46.5596 13.0803L48.2883 18.6121L52.0914 12.7346C52.2643 12.5617 52.4371 12.3888 52.7829 12.3888Z" fill="#263B80"/>
    <path fill-rule="evenodd" clip-rule="evenodd" d="M65.2289 6.85693H59.3514C59.0057 6.85693 58.6599 7.20267 58.487 7.54841L56.0669 22.7608C56.0669 23.1066 56.2398 23.2794 56.5855 23.2794H59.6971C60.0429 23.2794 60.2157 23.1066 60.2157 22.7608L60.9072 18.4391C60.9072 18.0934 61.2529 17.7476 61.7715 17.7476H63.6731C67.6491 17.7476 69.8964 15.8461 70.415 12.043C70.7607 10.4872 70.415 9.10422 69.7235 8.23988C68.6863 7.37554 67.1305 6.85693 65.2289 6.85693ZM65.9204 12.5616C65.5747 14.636 64.0188 14.636 62.463 14.636H61.4258L62.1173 10.66C62.1173 10.4872 62.2902 10.3143 62.6359 10.3143H62.9816C64.0188 10.3143 65.056 10.3143 65.5747 11.0058C65.9204 11.1786 65.9204 11.6973 65.9204 12.5616Z" fill="#139AD6"/>
    <path fill-rule="evenodd" clip-rule="evenodd" d="M82.862 12.3889H80.0961C79.9232 12.3889 79.5775 12.5618 79.5775 12.7346L79.4046 13.599L79.2317 13.2533C78.5403 12.3889 77.3302 12.0432 75.9472 12.0432C72.8356 12.0432 70.0697 14.4633 69.5511 17.7478C69.2054 19.4765 69.724 21.0323 70.5883 22.0695C71.4526 23.1068 72.6627 23.4525 74.2185 23.4525C76.8116 23.4525 78.1945 21.8967 78.1945 21.8967L78.0216 22.761C78.0216 23.1067 78.1945 23.2796 78.5403 23.2796H81.1333C81.479 23.2796 81.8248 22.9339 81.9976 22.5881L83.5534 12.9075C83.5126 12.8667 83.4718 12.8163 83.4287 12.763C83.2893 12.5907 83.1261 12.3889 82.862 12.3889ZM78.886 17.9207C78.5403 19.4765 77.3302 20.6866 75.6015 20.6866C74.7371 20.6866 74.0457 20.3409 73.6999 19.9951C73.3542 19.4765 73.1813 18.785 73.1813 17.9207C73.3542 16.3649 74.7371 15.1548 76.293 15.1548C77.1573 15.1548 77.6759 15.5005 78.1945 15.8463C78.886 16.3649 79.0589 17.2292 78.886 17.9207Z" fill="#139AD6"/>
    <path d="M83.726 22.9335L86.1461 7.37539C86.319 7.02965 86.4919 6.85678 86.6647 7.02965H89.4306C89.7764 7.02965 89.9492 7.20252 89.9492 7.54825L87.5291 22.7607C87.3562 23.1064 87.0105 23.4521 86.6647 23.4521H84.2446C83.8989 23.4521 83.726 23.2793 83.726 22.9335Z" fill="#139AD6"/>
</svg>

<svg fill="none" xmlns="http://www.w3.org/2000/svg" viewBox="0 0 104 32"><path fill-rule="evenodd" clip-rule="evenodd" d="M22.9 6.9H17c-.3 0-.7.3-.9.6l-2.4 15.3c0 .3.2.5.5.5H17c.3 0 .7-.4.9-.7l.7-4.2c0-.3.3-.7.8-.7h2c3.9 0 6.1-1.9 6.7-5.7.3-1.5 0-2.9-.7-3.8-1-.8-2.4-1.3-4.5-1.3Zm.7 5.7c-.4 2-2 2-3.5 2h-.9l.7-4c0-.1.2-.3.6-.3h.3c1 0 2 0 2.6.7.2.2.3.7.2 1.6ZM40.7 12.4h-2.8c-.2 0-.5.2-.5.3l-.2.9-.1-.3c-.7-1-2-1.3-3.3-1.3a6.6 6.6 0 0 0-6.4 5.7c-.4 1.8.1 3.3 1 4.4.9 1 2 1.4 3.6 1.4 2.6 0 4-1.6 4-1.6l-.2.9c0 .3.2.5.6.5H39c.3 0 .6-.4.8-.7l1.6-9.7c-.2-.2-.5-.5-.7-.5Zm-4 5.5c-.3 1.6-1.5 2.8-3.3 2.8-.8 0-1.5-.4-1.9-.7-.3-.5-.5-1.2-.5-2a3.2 3.2 0 0 1 3.1-2.8c.9 0 1.4.3 2 .6.4.6.6 1.4.6 2.1Z" fill="#71717A" fill-opacity=".5"/><path d="M52.8 12.4h3c.3 0 .6.5 0 1l-9.4 13.7c-.2.2-.4.3-.7.3h-2.8c-.3 0-.5-.5-.3-.8l3-4.2-3.2-9.1c0-.4.2-.7.5-.7h2.8c.5 0 .7.1.9.5l1.7 5.5 3.8-5.9c.2-.1.3-.3.7-.3Z" fill="#71717A" fill-opacity=".5"/><path fill-rule="evenodd" clip-rule="evenodd" d="M65.2 6.9h-5.8c-.4 0-.7.3-1 .6l-2.3 15.3c0 .3.1.5.5.5h3.1c.3 0 .5-.2.5-.5l.7-4.4c0-.3.4-.7.9-.7h1.9c4 0 6.2-1.9 6.7-5.7.4-1.5 0-2.9-.7-3.8A7 7 0 0 0 65.2 7Zm.7 5.7c-.3 2-1.9 2-3.4 2h-1l.6-4c0-.1.2-.3.5-.3h.4c1 0 2 0 2.6.7.3.2.3.7.3 1.6ZM82.9 12.4H80c-.2 0-.5.2-.5.3l-.2.9-.2-.3c-.7-1-1.9-1.3-3.3-1.3a6.6 6.6 0 0 0-6.3 5.7c-.4 1.8.1 3.3 1 4.4.9 1 2 1.4 3.6 1.4 2.6 0 4-1.6 4-1.6l-.2.9c0 .3.2.5.5.5h2.6c.4 0 .7-.4.9-.7l1.6-9.7-.2-.1c-.1-.2-.3-.4-.5-.4Zm-4 5.5c-.4 1.6-1.6 2.8-3.3 2.8-.9 0-1.6-.4-1.9-.7-.3-.5-.5-1.2-.5-2a3.2 3.2 0 0 1 3-2.8c1 0 1.5.3 2 .6.7.6.9 1.4.7 2.1Z" fill="#71717A" fill-opacity=".5"/><path d="m83.7 23 2.4-15.6c.2-.4.4-.5.6-.4h2.7c.4 0 .5.2.5.5l-2.4 15.3c-.1.3-.5.7-.8.7h-2.5c-.3 0-.5-.2-.5-.6Z" fill="#71717A" fill-opacity=".5"/></svg>
